X: 3
T: Pigeon on the Gate
R: reel
Z: 2005 John Chambers <jc:trillian.mit.edu>
M: C|
L: 1/8
K: Amix
af \
|: "A"eA~A2  ABcd |   eA~A2 "D"a2af | "A"eA~A2   ABcd |    efge "G"d2cd :|
| "A"eaaf "G"gfed | "A"eaaf "G"g2fg | "A"eaaf "G"gfed | "A"efge "G"d2cd |
| "A"eaaf "G"gfed | "A"eaaf "G"g2fg | "D"afge    fdec | "G"dB~B2   g2y2 |]
